app/_includes/svgs/client-logos/logo_ueno.min.svg

<svg xmlns="http://www.w3.org/2000/svg" viewBox="0 0 250 100" enable-background="new 0 0 250 100"><g><path d="M44.103 55.296c0 13.279-7.243 19.637-21.971 19.637s-22.132-6.438-22.132-19.637v-29.214h14.889v25.995c0 4.829 0 10.865 7.243 10.865 7.002 0 7.002-6.036 7.002-10.865v-25.995h14.889v29.214h.08z"/><path d="M46.92 26.082h40.079v12.233h-25.11v5.875h22.776v11.428h-22.776v5.875h25.834v12.233h-40.803v-47.644z"/><path d="M90.701 26.082h15.291l14.084 25.512h.161v-25.512h14.084v47.644h-14.567l-14.889-25.995h-.241v25.995h-14.084l.161-47.644z"/><path d="M161.926 24.955c14.728 0 24.466 10.382 24.466 24.949s-9.899 24.949-24.466 24.949c-14.728 0-24.466-10.382-24.466-24.949s9.738-24.949 24.466-24.949zm0 37.987c3.863 0 9.577-2.495 9.577-13.118s-5.875-13.038-9.577-13.038c-3.863 0-9.577 2.495-9.577 13.038-.081 10.623 5.794 13.118 9.577 13.118z"/><ellipse cx="193.635" cy="67.851" rx="7.565" ry="7.404"/></g></svg>

<svg xmlns="http://www.w3.org/2000/svg" viewBox="0 0 250 100" enable-background="new 0 0 250 100"><g><path d="M44.103,55.296c0,13.279-7.243,19.637-21.971,19.637S0,68.495,0,55.296V26.082h14.889v25.995 c0,4.829,0,10.865,7.243,10.865c7.002,0,7.002-6.036,7.002-10.865V26.082h14.889v29.214H44.103z"/><path d="M46.92,26.082h40.079v12.233h-25.11v5.875h22.776v11.428H61.889v5.875h25.834v12.233H46.92V26.082z"/><path d="M90.701,26.082h15.291l14.084,25.512h0.161V26.082h14.084v47.644h-14.567l-14.889-25.995h-0.241v25.995H90.54 L90.701,26.082L90.701,26.082z"/><path d="M161.926,24.955c14.728,0,24.466,10.382,24.466,24.949s-9.899,24.949-24.466,24.949 c-14.728,0-24.466-10.382-24.466-24.949S147.198,24.955,161.926,24.955z M161.926,62.942c3.863,0,9.577-2.495,9.577-13.118 s-5.875-13.038-9.577-13.038c-3.863,0-9.577,2.495-9.577,13.038C152.268,60.447,158.143,62.942,161.926,62.942z"/><ellipse cx="193.635" cy="67.851" rx="7.565" ry="7.404"/></g></svg>
